build/images/icons/refresh.svg

<svg width="17" height="16" viewBox="0 0 17 16">
  <path d="M11.9003 1.04113C11.846 1.01109 11.782 1.00393 11.7224 1.0211C11.6628 1.03827 11.6125 1.07846 11.5824 1.13278L10.5645 2.97563C10.5021 3.08871 10.5431 3.23102 10.6562 3.29348C12.3797 4.24548 13.4503 6.0582 13.4503 8.02428C13.4503 11.002 11.0277 13.4246 8.05 13.4246C5.07226 13.4246 2.64971 11.002 2.64971 8.02428C2.64971 6.90672 3.00326 5.80548 3.65004 4.8946L5.26305 6.50761C5.32564 6.57016 5.41814 6.5921 5.50207 6.56421C5.58604 6.53633 5.64714 6.46354 5.65991 6.37596L6.54796 0.293338C6.55863 0.220215 6.53416 0.14639 6.4819 0.0941329C6.42964 0.0418755 6.35559 0.0174545 6.2827 0.0280744L0.200124 0.916168C0.112545 0.92894 0.0397495 0.990039 0.0119132 1.07402C-0.0159698 1.15799 0.00597168 1.25048 0.0685214 1.31303L1.81318 3.05769C0.69182 4.46705 0.076615 6.22218 0.076615 8.02428C0.076615 12.4208 3.65346 15.9977 8.05 15.9977C12.4465 15.9977 16.0234 12.4208 16.0234 8.02428C16.0234 5.12174 14.4435 2.44595 11.9003 1.04113Z"/>
</svg>

<svg width="17" height="16"><path d="M11.9 1.041a.234.234 0 00-.318.092l-1.018 1.843a.234.234 0 00.092.317 5.407 5.407 0 012.794 4.731c0 2.978-2.422 5.4-5.4 5.4a5.406 5.406 0 01-5.4-5.4c0-1.117.353-2.219 1-3.13l1.613 1.614a.234.234 0 00.397-.132L6.548.293a.234.234 0 00-.265-.265L.2.916a.234.234 0 00-.131.397l1.744 1.745A7.99 7.99 0 00.077 8.024c0 4.397 3.576 7.974 7.973 7.974 4.396 0 7.973-3.577 7.973-7.974A7.98 7.98 0 0011.9 1.041z"/></svg>
